img/sidebar/blog-active.svg

<?xml version="1.0" encoding="UTF-8"?>
<svg width="38px" height="38px" viewBox="0 0 38 38" version="1.1" xmlns="http://www.w3.org/2000/svg" xmlns:xlink="http://www.w3.org/1999/xlink">
    <title>3E0B9184-E9FB-4D24-9F61-21E156317EAF@2.00x</title>
    <g id="homepage" stroke="none" stroke-width="1" fill="none" fill-rule="evenodd">
        <g id="Nav-Side" transform="translate(-1057.000000, -856.000000)">
            <g id="Group-48" transform="translate(1057.000000, 856.000000)">
                <g id="mandatory">
                    <rect id="Rectangle" fill-rule="nonzero" x="25.7419355" y="11.6451613" width="9.80645161" height="14.7096774"></rect>
                    <rect id="Rectangle" fill="#000000" x="3.04" y="4.75" width="22.135" height="25.935"></rect>
                    <g id="Group" fill-rule="nonzero">
                        <rect id="Rectangle" fill="#000000" x="34.3225806" y="23.2903226" width="1.22580645" height="1.22580645"></rect>
                        <rect id="Rectangle" fill="#000000" x="3.06451613" y="33.7096774" width="15.9354839" height="1.22580645"></rect>
                        <path d="M14.7096774,13.483871 C13.8957419,13.483871 13.0885484,13.6879677 12.3763548,14.0734839 L12.9604516,15.1515806 C13.4942903,14.8629032 14.0992258,14.7096774 14.7096774,14.7096774 C16.7377742,14.7096774 18.3870968,16.359 18.3870968,18.3870968 C18.3870968,18.9981613 18.2344839,19.6030968 17.9451935,20.1363226 L19.0226774,20.7204194 C19.4088065,20.0088387 19.6129032,19.2016452 19.6129032,18.3870968 C19.6129032,15.6835806 17.4131935,13.483871 14.7096774,13.483871 Z" id="Path" fill="#FFFFFF"></path>
                        <path d="M14.7096774,22.0645161 C12.6815806,22.0645161 11.0322581,20.4151935 11.0322581,18.3870968 C11.0322581,17.7760323 11.184871,17.1710968 11.4741613,16.637871 L10.3966774,16.0537742 C10.0105484,16.7653548 9.80645161,17.5725484 9.80645161,18.3870968 C9.80645161,21.0906129 12.0061613,23.2903226 14.7096774,23.2903226 C15.5242258,23.2903226 16.3314194,23.0862258 17.043,22.7000968 L16.4589032,21.6226129 C15.9256774,21.9119032 15.3207419,22.0645161 14.7096774,22.0645161 Z" id="Path" fill="#FFFFFF"></path>
                        <path d="M14.7096774,15.9354839 C13.3576129,15.9354839 12.2580645,17.0350323 12.2580645,18.3870968 C12.2580645,19.7391613 13.3576129,20.8387097 14.7096774,20.8387097 C16.0617419,20.8387097 17.1612903,19.7391613 17.1612903,18.3870968 C17.1612903,17.0350323 16.0617419,15.9354839 14.7096774,15.9354839 Z M14.7096774,19.6129032 C14.0336452,19.6129032 13.483871,19.063129 13.483871,18.3870968 C13.483871,17.7110645 14.0336452,17.1612903 14.7096774,17.1612903 C15.3857097,17.1612903 15.9354839,17.7110645 15.9354839,18.3870968 C15.9354839,19.063129 15.3857097,19.6129032 14.7096774,19.6129032 Z" id="Shape" fill="#FFFFFF"></path>
                        <path d="M38,7.714 L30.286,0 L14.7096774,0 L14.7096774,3.67741935 L3.67741935,3.67741935 C1.64932258,3.67741935 0,5.32674194 0,7.35483871 L0,34.3225806 C0,36.3506774 1.64932258,38 3.67741935,38 L26.3548387,38 L26.3548387,36.7741935 C25.0027742,36.7741935 23.9032258,35.6746452 23.9032258,34.3225806 C23.9032258,32.9705161 25.0027742,31.8709677 26.3548387,31.8709677 L26.3548387,31.2580645 L26.3548387,30.6451613 L26.3548387,29.4193548 L38,29.4193548 L38,7.714 Z M30.6451613,2.09245161 L35.9075484,7.35483871 L30.6451613,7.35483871 L30.6451613,2.09245161 Z M23.6157742,36.7741935 L3.67741935,36.7741935 C2.32535484,36.7741935 1.22580645,35.6746452 1.22580645,34.3225806 C1.22580645,32.9705161 2.32535484,31.8709677 3.67741935,31.8709677 L23.6157742,31.8709677 C23.0329032,32.521871 22.6774194,33.3817742 22.6774194,34.3225806 C22.6774194,35.2633871 23.0329032,36.1232903 23.6157742,36.7741935 Z M4.29032258,30.6451613 L4.29032258,9.80645161 L3.06451613,9.80645161 L3.06451613,30.7003226 C2.36458065,30.8186129 1.73267742,31.1342581 1.22580645,31.5890323 L1.22580645,7.35483871 C1.22580645,6.21606452 2.00970968,5.26422581 3.06451613,4.99025806 L3.06451613,8.58064516 L4.29032258,8.58064516 L4.29032258,4.90322581 L25.1290323,4.90322581 L25.1290323,30.6451613 L4.29032258,30.6451613 Z M26.3548387,28.1935484 L26.3548387,26.9677419 L35.5483871,26.9677419 L35.5483871,25.7419355 L26.3548387,25.7419355 L26.3548387,24.516129 L33.0967742,24.516129 L33.0967742,23.2903226 L26.3548387,23.2903226 L26.3548387,22.0645161 L35.5483871,22.0645161 L35.5483871,20.8387097 L26.3548387,20.8387097 L26.3548387,19.6129032 L35.5483871,19.6129032 L35.5483871,18.3870968 L26.3548387,18.3870968 L26.3548387,17.1612903 L35.5483871,17.1612903 L35.5483871,15.9354839 L26.3548387,15.9354839 L26.3548387,14.7096774 L35.5483871,14.7096774 L35.5483871,13.483871 L26.3548387,13.483871 L26.3548387,12.2580645 L35.5483871,12.2580645 L35.5483871,11.0322581 L26.3548387,11.0322581 L26.3548387,3.67741935 L15.9354839,3.67741935 L15.9354839,1.22580645 L29.4193548,1.22580645 L29.4193548,8.58064516 L36.7741935,8.58064516 L36.7741935,28.1935484 L26.3548387,28.1935484 Z" id="Shape" fill="#000000"></path>
                        <rect id="Rectangle" fill="#000000" x="22.6774194" y="6.12903226" width="1.22580645" height="1.22580645"></rect>
                        <rect id="Rectangle" fill="#000000" x="20.2258065" y="6.12903226" width="1.22580645" height="1.22580645"></rect>
                        <rect id="Rectangle" fill="#000000" x="5.51612903" y="28.1935484" width="1.22580645" height="1.22580645"></rect>
                        <rect id="Rectangle" fill="#000000" x="7.96774194" y="28.1935484" width="1.22580645" height="1.22580645"></rect>
                        <rect id="Rectangle" fill="#000000" x="20.2258065" y="33.7096774" width="1.22580645" height="1.22580645"></rect>
                    </g>
                </g>
            </g>
        </g>
    </g>
</svg>

<svg width="38" height="38" xmlns="http://www.w3.org/2000/svg"><g fill="none" fill-rule="evenodd"><path d="M25.742 11.645h9.806v14.71h-9.806z"/><path fill="#000" d="M3.04 4.75h22.135v25.935H3.04z"/><g fill-rule="nonzero"><path fill="#000" d="M34.323 23.29h1.226v1.226h-1.226zM3.065 33.71H19v1.226H3.065z"/><path d="M14.71 13.484c-.814 0-1.621.204-2.334.59l.584 1.078a3.681 3.681 0 014.985 4.985l1.078.583c.386-.711.59-1.518.59-2.333 0-2.703-2.2-4.903-4.903-4.903zM14.71 22.065a3.681 3.681 0 01-3.236-5.427l-1.077-.584a4.907 4.907 0 00-.59 2.333c0 2.704 2.2 4.903 4.903 4.903.814 0 1.621-.204 2.333-.59l-.584-1.077a3.678 3.678 0 01-1.75.442z" fill="#FFF"/><path d="M14.71 15.935a2.454 2.454 0 00-2.452 2.452c0 1.352 1.1 2.452 2.452 2.452 1.352 0 2.451-1.1 2.451-2.452 0-1.352-1.1-2.452-2.451-2.452zm0 3.678a1.227 1.227 0 010-2.452 1.227 1.227 0 010 2.452z" fill="#FFF"/><path d="M38 7.714L30.286 0H14.71v3.677H3.677A3.681 3.681 0 000 7.355v26.968A3.681 3.681 0 003.677 38h22.678v-1.226a2.454 2.454 0 01-2.452-2.451c0-1.352 1.1-2.452 2.452-2.452v-2.452H38V7.714zm-7.355-5.622l5.263 5.263h-5.263V2.092zm-7.03 34.682H3.678a2.454 2.454 0 01-2.451-2.451c0-1.352 1.1-2.452 2.451-2.452h19.939a3.665 3.665 0 00-.939 2.452c0 .94.356 1.8.939 2.451zM4.29 30.645V9.806H3.065V30.7c-.7.119-1.332.434-1.84.889V7.355c0-1.139.785-2.09 1.84-2.365v3.59H4.29V4.904H25.13v25.742H4.29zm22.065-2.451v-1.226h9.193v-1.226h-9.193v-1.226h6.742V23.29h-6.742v-1.225h9.193v-1.226h-9.193v-1.226h9.193v-1.226h-9.193v-1.226h9.193v-1.226h-9.193V14.71h9.193v-1.226h-9.193v-1.226h9.193v-1.226h-9.193V3.677h-10.42V1.226H29.42V8.58h7.355v19.613h-10.42z" fill="#000"/><path fill="#000" d="M22.677 6.129h1.226v1.226h-1.226zM20.226 6.129h1.226v1.226h-1.226zM5.516 28.194h1.226v1.226H5.516zM7.968 28.194h1.226v1.226H7.968zM20.226 33.71h1.226v1.226h-1.226z"/></g></g></svg>
